16x16/actions/node.svg

<svg viewBox="0 0 16 16" xmlns="http://www.w3.org/2000/svg"><path d="m5.305 2c.01-.002-3.305 3.313-3.305 3.313v8.687h8.688s3.322-3.283 3.312-3.281v-8.719zm.695 1h6.281c-.833.844-1.627 1.661-1.969 2h-4.312zm-1 .719v1.281h-1.313zm8 0v6.281h-2v-4.313zm-10 2.281h2v4.281l-.344.375-1.656 1.656zm3 0h4v4h-4zm-.281 5h4.281v2h-6.313l1.657-1.656zm5.281 0h1.281c-.544.552-.735.762-1.281 1.313z" fill="#8b9cbe"/></svg>

<svg viewBox="0 0 16 16" xmlns="http://www.w3.org/2000/svg">
    <path d="M5.305 2C5.315 1.998 2 5.313 2 5.313V14h8.688S14.01 10.717 14 10.719V2zM6 3h6.281c-.833.844-1.627 1.661-1.969 2H6zm-1 .719V5H3.687zm8 0V10h-2V5.687zM3 6h2v4.281l-.344.375L3 12.312zm3 0h4v4H6zm-.281 5H10v2H3.687l1.657-1.656zM11 11h1.281c-.544.552-.735.762-1.281 1.313z" fill="#f4f4f7"/>
</svg>
